lib/brands/icons/apple.svg

<svg xmlns="http://www.w3.org/2000/svg" fill="none" aria-hidden="true" viewBox="0 0 48 48"><g id="apple-Icon"><path id="Vector" fill="black" d="M33.0373 24.9102C33.0231 22.2883 34.209 20.3094 36.6094 18.852C35.2663 16.9302 33.2374 15.8729 30.5583 15.6657C28.0221 15.4656 25.2502 17.1445 24.2357 17.1445C23.1641 17.1445 20.7065 15.7371 18.7776 15.7371C14.7912 15.8014 10.5547 18.9163 10.5547 25.2531C10.5547 27.1249 10.8976 29.0586 11.5834 31.0542C12.4979 33.6761 15.7985 40.1058 19.242 39.9987C21.0423 39.9558 22.314 38.7199 24.6573 38.7199C26.9291 38.7199 28.1079 39.9987 30.1154 39.9987C33.5874 39.9487 36.5737 34.1047 37.4453 31.4757C32.7873 29.2824 33.0373 25.046 33.0373 24.9102V24.9102ZM28.9938 13.1795C30.9441 10.8648 30.7655 8.75728 30.7084 8C28.9866 8.10002 26.9934 9.17164 25.8575 10.4933C24.6072 11.9079 23.8714 13.6582 24.0286 15.63C25.8932 15.7728 27.5935 14.8155 28.9938 13.1795V13.1795Z"/></g></svg>

<svg xmlns="http://www.w3.org/2000/svg" fill="none" aria-hidden="true" viewBox="0 0 48 48"><path fill="#000" d="M33.037 24.91c-.014-2.622 1.172-4.6 3.572-6.058-1.343-1.922-3.372-2.98-6.05-3.186-2.537-.2-5.309 1.479-6.323 1.479-1.072 0-3.53-1.408-5.458-1.408-3.987.064-8.223 3.18-8.223 9.516 0 1.872.343 3.806 1.028 5.801.915 2.622 4.216 9.052 7.659 8.945 1.8-.043 3.072-1.28 5.415-1.28 2.272 0 3.45 1.28 5.458 1.28 3.472-.05 6.459-5.894 7.33-8.523-4.658-2.194-4.408-6.43-4.408-6.566Zm-4.043-11.73c1.95-2.315 1.771-4.423 1.714-5.18-1.721.1-3.715 1.172-4.85 2.493-1.25 1.415-1.987 3.165-1.83 5.137 1.865.143 3.566-.815 4.966-2.45Z"/></svg>
